picto/all-gender-toilet.svg

<svg class="color-immutable" width="24" height="24" viewBox="0 0 24 24" fill="none" xmlns="http://www.w3.org/2000/svg"><path d="M0 22.5V1.5C0 0.675 0.675 0 1.5 0H22.5C23.325 0 24 0.675 24 1.5V22.5C24 23.325 23.325 24 22.5 24H1.5C0.675 24 0 23.325 0 22.5Z" fill="#2D327D"/><path d="M12 20.992C11.898 20.992 11.815 20.909 11.815 20.807V3.181C11.815 3.079 11.898 2.996 12 2.996C12.102 2.996 12.185 3.079 12.185 3.181V20.806C12.185 20.909 12.102 20.992 12 20.992Z" fill="white"/><path d="M16.213 4.48801C16.213 3.66001 16.885 2.98801 17.713 2.98801C18.541 2.98801 19.213 3.66001 19.213 4.48801C19.213 5.31601 18.541 5.98801 17.713 5.98801C16.885 5.98801 16.213 5.31601 16.213 4.48801Z" fill="white"/><path d="M21 7.875V12.966C21 13.261 20.761 13.5 20.466 13.5C20.171 13.5 19.932 13.261 19.932 12.966V8.625H19.463V20.231C19.463 20.655 19.119 21 18.694 21C18.27 21 17.925 20.656 17.925 20.231V13.481H17.438V20.231C17.438 20.655 17.094 21 16.669 21C16.245 21 15.9 20.656 15.9 20.231V8.625H15.431V12.966C15.431 13.261 15.192 13.5 14.896 13.5C14.601 13.5 14.362 13.261 14.362 12.966V7.875C14.362 7.047 15.034 6.375 15.862 6.375H19.5C20.328 6.375 21 7.047 21 7.875Z" fill="white"/><path d="M9.76101 12.704C9.83801 12.914 10.039 13.054 10.262 13.054C10.557 13.054 10.796 12.815 10.796 12.52C10.796 12.457 10.785 12.394 10.763 12.335L8.93001 7.356C8.71201 6.766 8.15001 6.375 7.52201 6.375H5.82401C5.19601 6.375 4.63401 6.767 4.41601 7.356L2.58201 12.334C2.56001 12.393 2.54901 12.456 2.54901 12.519C2.54901 12.814 2.78801 13.053 3.08301 13.053C3.30701 13.053 3.50701 12.913 3.58401 12.703L5.08701 8.624H5.58601L2.96301 15.75H4.89101V20.231C4.89101 20.655 5.23601 20.999 5.66001 20.999C6.08501 20.999 6.42901 20.655 6.42901 20.231V15.75H6.91701V20.231C6.91701 20.655 7.26101 20.999 7.68601 20.999C8.11101 20.999 8.45501 20.655 8.45501 20.231V15.75H10.384L7.75801 8.625H8.25801L9.76101 12.704Z" fill="white"/><path d="M8.14203 4.48801C8.14203 3.66001 7.47003 2.98801 6.64203 2.98801C5.81403 2.98801 5.14203 3.66001 5.14203 4.48801C5.14203 5.31601 5.81403 5.98801 6.64203 5.98801C7.47003 5.98801 8.14203 5.31601 8.14203 4.48801Z" fill="white"/></svg>

<svg class="color-immutable" width="24" height="24" viewBox="0 0 24 24" fill="none" xmlns="http://www.w3.org/2000/svg"><g clip-path="url(#a)"><path d="M0 22.5v-21C0 .675.675 0 1.5 0h21c.825 0 1.5.675 1.5 1.5v21c0 .825-.675 1.5-1.5 1.5h-21C.675 24 0 23.325 0 22.5Z" fill="#2D327D"/><path d="M12 20.992a.185.185 0 0 1-.185-.185V3.181a.185.185 0 0 1 .37 0v17.625a.185.185 0 0 1-.185.186ZM16.213 4.488a1.5 1.5 0 1 1 3.001.001 1.5 1.5 0 0 1-3.001-.001ZM21 7.875v5.091a.534.534 0 1 1-1.068 0V8.625h-.469v11.606a.77.77 0 0 1-1.538 0v-6.75h-.487v6.75a.77.77 0 0 1-1.538 0V8.625h-.469v4.341a.534.534 0 0 1-1.069 0V7.875a1.5 1.5 0 0 1 1.5-1.5H19.5a1.5 1.5 0 0 1 1.5 1.5ZM9.761 12.704a.535.535 0 1 0 1.002-.369L8.93 7.356a1.501 1.501 0 0 0-1.408-.981H5.824c-.628 0-1.19.392-1.408.981l-1.834 4.978a.534.534 0 1 0 1.002.369l1.503-4.079h.499L2.963 15.75h1.928v4.481a.77.77 0 0 0 1.538 0V15.75h.488v4.481a.768.768 0 0 0 1.538 0V15.75h1.929L7.758 8.625h.5l1.503 4.079ZM8.142 4.488a1.5 1.5 0 1 0-3.001.001 1.5 1.5 0 0 0 3.001-.001Z" fill="#fff"/></g><defs><clipPath id="a"><path fill="#fff" d="M0 0h24v24H0z"/></clipPath></defs></svg>
